X: 999
T: All the way to Galway   #2
%S: s:2 b:10(4+6)
O: Ireland
B: Francis O'Neill: "The Dance Music of Ireland" (1907) no. 999
Z: Transcribed by Frank Nordberg - http://www.musicaviva.com
F: http://www.musicaviva.com/abc/tunes/ireland/oneill-1001/0999/oneill-1001-0999-1.abc
M: C
L: 1/8
K: Dmix
"^A"|: A | d>ef(d cA)A>c | BGG(A/B/) cAA>c | d>ef(d cA)A>c | BG(AF) D2D :|
"^B"|: G | A>BAG A(BcA) | G>(AGF) EFGE | A>BA(G [1 ABc)d | c(AGE) D2D :|2 AddB | c(AGE) D2D |]
